X: 1
T: Sandpoint
C: Rodney Miller 2001o%D:2001
R: march, reel
S: Fiddle Hell Online 2021-05-31
Z: 2021 John Chambers <jc:trillian.mit.edu>
M: C|
L: 1/8
K: D
DF |\
| "D"A2BA E2D2 | "G"B2A2 "D"A2DF | A2BA E2D2 | "Bm"[F2B,2][D2G,2] "A"[E2A,2] DF |\
| "D"A2BA FED2 | "G"B2A2 "D"Adcd | "G"B2AF "A"E2D2 | "Bm"B,2D2 D2 :|
|: dc |\
| "G"B3A Bcde | "D"f2a2 a2fa | "Bm"b3a fedA | "A"B2A2 A2dc |\
| "Em"B3A Bcde | "Bm"f2a2 a2fa | "G"b3a "D"fedA | "Bm"B2d2 "D"d2 :|
